X: 1
T: Car Huw Bach
M: 6/8
L: 1/8
R: jig
K: Dmaj
|:dAF dAF|GAB A3|d2A BAG|FGA E3|
dAF dAF|GAB A3|d2A BAG|FGE D3:|
|:F2F GAB|Ace def|gfe fed|B2B BAG|
F2F GAB|Ace def|gfe fed|Adc d3:|
